X:1
T:The Well-Tempered Clavier Part II Praeludium X
T:BWV 879
T:J. S. Bach
%%score { 1 | 2 }
L:1/8
M:3/8
K:G
V:1 treble nm="Harp"
V:2 bass 
V:1
 z/ G/A/B/c/A/ | B/G/F/E/^D/A/ | G/4F/4E/e z | ^d/4^c/4B/a z | z/ G/A/B/c/A/ | B/G/F/E/^D/A/ | %6
 G/B/c/d/e/c/ | d/B/A/G/F/c/ | B/d/e/f/g/e/ | f/d/^c/B/^A/e/ | d/f/e/d/^c/B/ | ^A/4^G/4F/e z | %12
 z/ d/e/f/g/e/ | f/d/^c/B/^A/e/ | d/B/^c/d/e/c/ | d/B/A/G/F/c/ | B/G/e/B/c/a/ | B/d/gB/4A/4B/4A/4 | %18
 G/E/c/G/A/f/ | G/B/eG/4F/4G/4F/4 | E/G/A/B/c/A/ | B/4A/4G/=f z | z/ E/F/G/A/F/ | G/D/E/F/G- | %24
 G/F/^G/A/B/G/ | A/E/F/G/A- | A/^G/^A/B/^c/A/ | B/F/^G/^A/B- | B/^A/B/^c/d/B/ | ^c/B/^A/^G/F/E/ | %30
 D/F/^G/^A/B/G/ | ^A/^G/F/E/D/^C/ | ^C/4B,/4C/4B,/4C/4B,/4C/4B,/4C/4B,/4C/4B,/4 | %33
 ^C/4B,/4C/4B,/4C/4B,/4C/4B,/4C/4B,/4C/4B,/4 | ^C/4B,/4C/4B,/4C/4B,/4C/4B,/4C/4B,/4C/4B,/4 | %35
 ^C/4B,/4C/4B,/4C/4B,/4C/4B,/4C/4B,/4C/4B,/4 | ^C/4B,/4C/4B,/4E/4D/4E3/2- | E/F/E/D/^C/E/ | %38
 ^A,^c/4B/4c3/2- | c/d/^c/B/^A/c/ | Fg/4f/4g3/2- | g/f/e/d/^c/e/ | %42
 e/4d/4c/4d/4e/4d/4e/4d/4e/4d/4e/4d/4 | e/4d/4^c/B/A/^G/B/ | =F/d/^c/B/^A/c/ | e/g/f/e/d/f/ | %46
 B^cB/4^A/4G/4A/4 | B3 | z/ G/A/B/c/A/ | B/G/F/E/^D/A/ | G/4F/4E/e z | ^d/4^c/4B/a z | %52
 z/ G/A/B/c/A/ | B/G/F/E/^D/A/ | G/B/c/d/e/c/ | d/B/A/G/F/c/ | B/d/e/f/g/e/ | f/d/^c/B/^A/e/ | %58
 d/f/e/d/^c/B/ | ^A/4^G/4F/e z | z/ d/e/f/g/e/ | f/d/^c/B/^A/e/ | d/B/^c/d/e/c/ | d/B/A/G/F/c/ | %64
 B/G/e/B/c/a/ | B/d/gB/4A/4B/4A/4 | G/E/c/G/A/f/ | G/B/eG/4F/4G/4F/4 | E/G/A/B/c/A/ | %69
 B/4A/4G/=f z | z/ E/F/G/A/F/ | G/D/E/F/G- | G/F/^G/A/B/G/ | A/E/F/G/A- | A/^G/^A/B/^c/A/ | %75
 B/F/^G/^A/B- | B/^A/B/^c/d/B/ | ^c/B/^A/^G/F/E/ | D/F/^G/^A/B/G/ | ^A/^G/F/E/D/^C/ | %80
 ^C/4B,/4C/4B,/4C/4B,/4C/4B,/4C/4B,/4C/4B,/4 | ^C/4B,/4C/4B,/4C/4B,/4C/4B,/4C/4B,/4C/4B,/4 | %82
 ^C/4B,/4C/4B,/4C/4B,/4C/4B,/4C/4B,/4C/4B,/4 | ^C/4B,/4C/4B,/4C/4B,/4C/4B,/4C/4B,/4C/4B,/4 | %84
 ^C/4B,/4C/4B,/4E/4D/4E3/2- | E/F/E/D/^C/E/ | ^A,^c/4B/4c3/2- | c/d/^c/B/^A/c/ | Fg/4f/4g3/2- | %89
 g/f/e/d/^c/e/ | e/4d/4c/4d/4e/4d/4e/4d/4e/4d/4e/4d/4 | e/4d/4^c/B/A/^G/B/ | =F/d/^c/B/^A/c/ | %93
 e/g/f/e/d/f/ | B^cB/4^A/4G/4A/4 | B3 | f3- | fe/f/g | ff/4e/4f/4e/4A | dd/4c/4B/c- | %100
 c/B/A/G/F/A/ | G/B/c/d/e/A/ | d/^G/A/B/c/F/ | B/E/F/^G/A/^D/ | ^GB/4A/4G/4A/4B | E/e/d/c/B/d/ | %106
 ce/4d/4c/4d/4e | A/a/g/=f/e/g/ | =fga- | a/d/c/B/A/c/ | Bcd- | d/G/c/d/e- | e/c/d/e/=f- | %113
 f/g/=f/e/d/f/ | e/E/F/^G/A/F/ | d/F/^G/A/B/G/ | c/^G/A/B/c/A/ | c/B/A/^G/A- | %118
 A/B/A/4B/4c/4B/4c/4B/4A/ | A3 | z/ d/c/B/A/c/ | B/d/e/f/g/^c/ | f/B/c/d/e/A/ | d/G/A/B/c/F/ | %124
 Bc/4^d/4e/4d/4e/4d/4^c/4d/4 | eg/4f/4e/4f/4g- | g/f/e/^d/e- | e/d/c/B/c/a/ | B/D/E/F/G- | %129
 G/F/^G/A/B/G/ | A/E/F/G/A- | A/G/A/B/c/A/ | B/^d/e/f/g/e/ | f/e/^d/^c/B/A/ | G/B/^c/^d/e/c/ | %135
 ^d/^c/B/A/G/F/ | F/4E/4F/4E/4F/4E/4F/4E/4F/4E/4F/4E/4 | F/4E/4F/4E/4F/4E/4F/4E/4F/4E/4F/4E/4 | %138
 F/4E/4F/4E/4F/4E/4F/4E/4F/4E/4F/4E/4 | F/4E/4F/4E/4d/4c/4d3/2- | d/e/d/c/B/d/ | cea- | %142
 a/b/a/g/f/a/ | ^dc'/4b/4c'3/2- | c'/b/a/g/f/a/ | g3- | g/f/e/d/^c/e/ | ^A/g/f/e/^d/f/ | %148
 A/c/B/A/G/B/ | EF/4E/4F/E/4^D/4C/4D/4 | E/^G/A/B/c/A/ | B/A/^G/F/E/d/ | ^c/^d/e/f/g/e/ | %153
 f/e/^d/^c/B/A/ | GA/4G/4A/G/4D/4E/4F/4 | E3 | f3- | fe/f/g | ff/4e/4f/4e/4A | dd/4c/4B/c- | %160
 c/B/A/G/F/A/ | G/B/c/d/e/A/ | d/^G/A/B/c/F/ | B/E/F/^G/A/^D/ | ^GB/4A/4G/4A/4B | E/e/d/c/B/d/ | %166
 ce/4d/4c/4d/4e | A/a/g/=f/e/g/ | =fga- | a/d/c/B/A/c/ | Bcd- | d/G/c/d/e- | e/c/d/e/=f- | %173
 f/g/=f/e/d/f/ | e/E/F/^G/A/F/ | d/F/^G/A/B/G/ | c/^G/A/B/c/A/ | c/B/A/^G/A- | %178
 A/B/A/4B/4c/4B/4c/4B/4A/ | A3 | z/ d/c/B/A/c/ | B/d/e/f/g/^c/ | f/B/c/d/e/A/ | d/G/A/B/c/F/ | %184
 Bc/4^d/4e/4d/4e/4d/4^c/4d/4 | eg/4f/4e/4f/4g- | g/f/e/^d/e- | e/d/c/B/c/a/ | B/D/E/F/G- | %189
 G/F/^G/A/B/G/ | A/E/F/G/A- | A/G/A/B/c/A/ | B/^d/e/f/g/e/ | f/e/^d/^c/B/A/ | G/B/^c/^d/e/c/ | %195
 ^d/^c/B/A/G/F/ | F/4E/4F/4E/4F/4E/4F/4E/4F/4E/4F/4E/4 | F/4E/4F/4E/4F/4E/4F/4E/4F/4E/4F/4E/4 | %198
 F/4E/4F/4E/4F/4E/4F/4E/4F/4E/4F/4E/4 | F/4E/4F/4E/4d/4c/4d3/2- | d/e/d/c/B/d/ | cea- | %202
 a/b/a/g/f/a/ | ^dc'/4b/4c'3/2- | c'/b/a/g/f/a/ | g3- | g/f/e/d/^c/e/ | ^A/g/f/e/^d/f/ | %208
 A/c/B/A/G/B/ | EF/4E/4F/E/4^D/4C/4D/4 | E/^G/A/B/c/A/ | B/A/^G/F/E/d/ | ^c/^d/e/f/g/e/ | %213
 f/e/^d/^c/B/A/ | GA/4G/4A/G/4D/4E/4F/4 | !fermata!E3 |] %216
V:2
 E,E,, z | z z2 | z/ G,/A,/B,/C/A,/ | B,/G,/F,/E,/^D,/A,/ | G,/E,/F,/G,/A,/F,/ | G,A,B, | E,D,C, | %7
 B,,C,D, | G,,F,,E,, | D,,E,,F,, | B,,/D,/E,/F,/G,/E,/ | F,/D,/^C,/B,,/^A,,/E,/ | %12
 D,/B,,/^C,/D,/E,/C,/ | D,E,F, | B,,B,^A, | B,F,D, | G,/B,/C/D/E/C/ | D/B,/A,/G,/F,/C/ | %18
 B,/G,/A,/B,/C/A,/ | B,/G,/F,/E,/^D,/A,/ | G,/E,/F,/G,/A,/F,/ | G,/E,/D,/C,/B,,/=F,/ | %22
 E,/G,,/A,,/B,,/C,- | C,/B,,/^C,/D,/E,/C,/ | D,/A,,/B,,/C,/D,- | D,/^C,/^D,/E,/F,/D,/ | %26
 E,/B,,/^C,/D,/E,- | E,/D,/E,/F,/G,/E,/ | E,/4F,/4G,/4F,/4G,/4F,/4G,/4F,/4G,/4F,/4G,/4F,/4 | %29
 G,/4F,/4G,/4F,/4G,/4F,/4G,/4F,/4G,/4F,/4G,/4F,/4 | %30
 G,/4F,/4G,/4F,/4G,/4F,/4G,/4F,/4G,/4F,/4G,/4F,/4 | %31
 G,/4F,/4G,/4F,/4G,/4F,/4G,/4F,/4G,/4F,/4G,/4F,/4 | z/ ^D,/E,/F,/G,/E,/ | F,/E,/^D,/^C,/B,,/A,,/ | %34
 G,,/B,,/^C,/^D,/E,/C,/ | ^D,/^C,/B,,/A,,/G,,/F,,/ | E,,/D,/^C,/B,,/^A,,/C,/ | F,, G,2- | %38
 G,/F,/E,/D,/^C,/E,/ | ^A,, E2- | E/D/^C/B,/^A,/C/ | F,^G,^A, | B,/^A,/B,/^C/D/B,/ | %43
 =F,/^F,/^G,/A,/B,/G,/ | ^C,=F,^F, | G,^A,,B,, | G,,E,,F,, | B,,/^C,/^D,/E,/F,/D,/ | E,E,, z | %49
 z z2 | z/ G,/A,/B,/C/A,/ | B,/G,/F,/E,/^D,/A,/ | G,/E,/F,/G,/A,/F,/ | G,A,B, | E,D,C, | B,,C,D, | %56
 G,,F,,E,, | D,,E,,F,, | B,,/D,/E,/F,/G,/E,/ | F,/D,/^C,/B,,/^A,,/E,/ | D,/B,,/^C,/D,/E,/C,/ | %61
 D,E,F, | B,,B,^A, | B,F,D, | G,/B,/C/D/E/C/ | D/B,/A,/G,/F,/C/ | B,/G,/A,/B,/C/A,/ | %67
 B,/G,/F,/E,/^D,/A,/ | G,/E,/F,/G,/A,/F,/ | G,/E,/D,/C,/B,,/=F,/ | E,/G,,/A,,/B,,/C,- | %71
 C,/B,,/^C,/D,/E,/C,/ | D,/A,,/B,,/C,/D,- | D,/^C,/^D,/E,/F,/D,/ | E,/B,,/^C,/D,/E,- | %75
 E,/D,/E,/F,/G,/E,/ | E,/4F,/4G,/4F,/4G,/4F,/4G,/4F,/4G,/4F,/4G,/4F,/4 | %77
 G,/4F,/4G,/4F,/4G,/4F,/4G,/4F,/4G,/4F,/4G,/4F,/4 | %78
 G,/4F,/4G,/4F,/4G,/4F,/4G,/4F,/4G,/4F,/4G,/4F,/4 | %79
 G,/4F,/4G,/4F,/4G,/4F,/4G,/4F,/4G,/4F,/4G,/4F,/4 | z/ ^D,/E,/F,/G,/E,/ | F,/E,/^D,/^C,/B,,/A,,/ | %82
 G,,/B,,/^C,/^D,/E,/C,/ | ^D,/^C,/B,,/A,,/G,,/F,,/ | E,,/D,/^C,/B,,/^A,,/C,/ | F,, G,2- | %86
 G,/F,/E,/D,/^C,/E,/ | ^A,, E2- | E/D/^C/B,/^A,/C/ | F,^G,^A, | B,/^A,/B,/^C/D/B,/ | %91
 =F,/^F,/^G,/A,/B,/G,/ | ^C,=F,^F, | G,^A,,B,, | G,,E,,F,, | B,,3 | z/ B,/A,/G,/F,/A,/ | %97
 G,/B,/^C/^D/E/A,/ | D/G,/A,/B,/C/F,/ | B,/E,/F,/G,/A,/_E,/ | G,A,B, | E,D,C, | B,,E,,A,, | %103
 D,,/C,,/D,,/E,,/=F,, | E,,/E,/D,/C,/B,,/D,/ | C,E,/4D,/4C,/4D,/4E, | A,,/A,/G,/=F,/E,/G,/ | %107
 =F,G,A, | D,/D/C/B,/A,/C/ | B,CD | z/ G,/=F,/E,/D,/F,/ | G,,/=F,/E,/D,/C,/E,/ | %112
 G,,/E,/D,/C,/B,,/D,/ | G,,A,,B,, | C,/D/C/B,/A,/C/ | B,,/C/B,/A,/^G,/B,/ | A,,/B,/A,/^G,/F,/A,/ | %117
 ^D,E,=F, | E,/D,/E,E,, | A,,/A,/G,/F,/E,/G,/ | F,D,F, | G,F,E, | D,/G,/A,/B,/C- | C/B,/A,/G,/A,- | %124
 A,/B,/A,/G,/F,/A,/ | G,/B,/^C/^D/E/A,/ | D/G,/A,/B,/C/F,/ | B,/E,/F,/G,/A,/D,/ | %128
 G,/F,/G,/A,/B,/^C/ | D/A,/B,/C/D- | D/^C/^D/E/F/D/ | E/E,/F,/G,/A,/F,/ | G,F,E, | %133
 C/4B,/4C/4B,/4C/4B,/4C/4B,/4C/4B,/4C/4B,/4 | C/4B,/4C/4B,/4C/4B,/4C/4B,/4C/4B,/4C/4B,/4 | %135
 C/4B,/4C/4B,/4C/4B,/4C/4B,/4C/4B,/4C/4B,/4 | z/ ^G,/A,/B,/C/A,/ | B,/A,/^G,/F,/E,/D,/ | %138
 C,/E,/F,/^G,/A,/F,/ | ^G,/F,/E,/D,/C,/B,,/ | A,,E,^G, | A,/B,/A,/G,/F,/A,/ | _E,C/4B,/4C3/2- | %143
 C/A,/F,/A,/^D,/F,/ | B,,E/4^D/4E/4D/4E/4D/4^C/4D/4 | E/^D/E/F/G/E/ | ^A,/B,/^C/D/E/C/ | F,^A,B, | %148
 C^D,E, | C,A,,B,, | C,,/E,,/F,,/^G,,/A,,/F,,/ | ^G,,/B,,/C,/D,/E,/F,/ | G,F,E, | ^D,B,,D, | %154
 E,A,,B,, | E,,3 | z/ B,/A,/G,/F,/A,/ | G,/B,/^C/^D/E/A,/ | D/G,/A,/B,/C/F,/ | %159
 B,/E,/F,/G,/A,/_E,/ | G,A,B, | E,D,C, | B,,E,,A,, | D,,/C,,/D,,/E,,/=F,, | E,,/E,/D,/C,/B,,/D,/ | %165
 C,E,/4D,/4C,/4D,/4E, | A,,/A,/G,/=F,/E,/G,/ | =F,G,A, | D,/D/C/B,/A,/C/ | B,CD | %170
 z/ G,/=F,/E,/D,/F,/ | G,,/=F,/E,/D,/C,/E,/ | G,,/E,/D,/C,/B,,/D,/ | G,,A,,B,, | C,/D/C/B,/A,/C/ | %175
 B,,/C/B,/A,/^G,/B,/ | A,,/B,/A,/^G,/F,/A,/ | ^D,E,=F, | E,/D,/E,E,, | A,,/A,/G,/F,/E,/G,/ | %180
 F,D,F, | G,F,E, | D,/G,/A,/B,/C- | C/B,/A,/G,/A,- | A,/B,/A,/G,/F,/A,/ | G,/B,/^C/^D/E/A,/ | %186
 D/G,/A,/B,/C/F,/ | B,/E,/F,/G,/A,/D,/ | G,/F,/G,/A,/B,/^C/ | D/A,/B,/C/D- | D/^C/^D/E/F/D/ | %191
 E/E,/F,/G,/A,/F,/ | G,F,E, | C/4B,/4C/4B,/4C/4B,/4C/4B,/4C/4B,/4C/4B,/4 | %194
 C/4B,/4C/4B,/4C/4B,/4C/4B,/4C/4B,/4C/4B,/4 | C/4B,/4C/4B,/4C/4B,/4C/4B,/4C/4B,/4C/4B,/4 | %196
 z/ ^G,/A,/B,/C/A,/ | B,/A,/^G,/F,/E,/D,/ | C,/E,/F,/^G,/A,/F,/ | ^G,/F,/E,/D,/C,/B,,/ | A,,E,^G, | %201
 A,/B,/A,/G,/F,/A,/ | _E,C/4B,/4C3/2- | C/A,/F,/A,/^D,/F,/ | B,,E/4^D/4E/4D/4E/4D/4^C/4D/4 | %205
 E/^D/E/F/G/E/ | ^A,/B,/^C/D/E/C/ | F,^A,B, | C^D,E, | C,A,,B,, | C,,/E,,/F,,/^G,,/A,,/F,,/ | %211
 ^G,,/B,,/C,/D,/E,/F,/ | G,F,E, | ^D,B,,D, | E,A,,B,, | !fermata!E,,3 |] %216

